X:1
T: Adio Querida
O: Sephardic
M:4/4
K:G
z4z2zD|B3B AG FA|G6G2|c3d ef (ed)|
|:d6d2|e2e2 ed cB| A4-AA AB|c3e (dc Bc):|
|:G4-G2D2|B4 B4-|B2 (GA) B2G2|(B3c)B4-
|B2 GA B2G2|(A3B) A4-|AF FG A2B2|G8-:|G8||
